material/.icons/material/pause-octagon-outline.svg

<svg xmlns="http://www.w3.org/2000/svg" viewBox="0 0 24 24"><path d="M15 16h-2V8h2v8m-4 0H9V8h2v8m4.73-13L21 8.27v7.46L15.73 21H8.27L3 15.73V8.27L8.27 3h7.46m-.83 2H9.1L5 9.1v5.8L9.1 19h5.8l4.1-4.1V9.1L14.9 5z"/></svg>

<?xml version="1.0" encoding="UTF-8"?><!DOCTYPE svg PUBLIC "-//W3C//DTD SVG 1.1//EN" "http://www.w3.org/Graphics/SVG/1.1/DTD/svg11.dtd"><svg xmlns="http://www.w3.org/2000/svg" xmlns:xlink="http://www.w3.org/1999/xlink" version="1.1" id="mdi-pause-octagon-outline" width="24" height="24" viewBox="0 0 24 24"><path d="M15,16H13V8H15V16M11,16H9V8H11V16M15.73,3L21,8.27V15.73L15.73,21H8.27L3,15.73V8.27L8.27,3H15.73M14.9,5H9.1L5,9.1V14.9L9.1,19H14.9L19,14.9V9.1L14.9,5Z" /></svg>
